.files/icons/devices/Gamepad#1.svg

<svg fill="none" height="48" viewBox="0 0 48 48" width="48" xmlns="http://www.w3.org/2000/svg"><g fill="#000"><path d="m25.8974 18.6325-3.7948-1.265c1.5295-4.5882 3.9828-7.45039 7.4123-8.30779 1.7857-.44641 4.4851-3.32069 4.4851-5.05971h4c0 3.59431-3.9672 8.0534-7.5149 8.9403-1.9038.4759-3.4505 2.2804-4.5877 5.6922z" opacity=".3"/><path clip-rule="evenodd" d="m26.5143 34h-5.0286c-2.0176 2.443-5.0698 4-8.4857 4-6.07513 0-11-4.9249-11-11 0-4.918 3.22742-9.0821 7.6798-10.4901.5303-.3235 1.1535-.5099 1.8202-.5099h1.5 22 1.5c.6667 0 1.2898.1864 1.8202.5099 4.4524 1.408 7.6798 5.5721 7.6798 10.4901 0 6.0751-4.9249 11-11 11-3.4159 0-6.4681-1.557-8.4857-4zm-16.5143-13.5c0-.2761.2239-.5.5-.5h3c.2761 0 .5.2239.5.5v3c0 .2761-.2239.5-.5.5h-3c-.2761 0-.5-.2239-.5-.5zm4.5 3.5c-.2761 0-.5.2239-.5.5v3c0 .2761.2239.5.5.5h3c.2761 0 .5-.2239.5-.5v-3c0-.2761-.2239-.5-.5-.5zm23.5 0c1.1046 0 2-.8954 2-2s-.8954-2-2-2-2 .8954-2 2 .8954 2 2 2zm0 4c0 1.1046-.8954 2-2 2s-2-.8954-2-2 .8954-2 2-2 2 .8954 2 2zm-28 .5c0-.2761.2239-.5.5-.5h3c.2761 0 .5.2239.5.5v3c0 .2761-.2239.5-.5.5h-3c-.2761 0-.5-.2239-.5-.5zm-3.5-4.5c-.27614 0-.5.2239-.5.5v3c0 .2761.22386.5.5.5h3c.27614 0 .5-.2239.5-.5v-3c0-.2761-.22386-.5-.5-.5z" fill-rule="evenodd"/></g></svg>

<svg width="48" height="48" viewBox="0 0 48 48" fill="none" xmlns="http://www.w3.org/2000/svg">
<path opacity="0.3" d="M25.8974 18.6325L22.1026 17.3675C23.6321 12.7793 26.0854 9.91711 29.5149 9.05971C31.3006 8.6133 34 5.73902 34 4H38C38 7.59431 34.0328 12.0534 30.4851 12.9403C28.5813 13.4162 27.0346 15.2207 25.8974 18.6325Z" fill="black"/>
<path fill-rule="evenodd" clip-rule="evenodd" d="M26.5143 34H21.4857C19.4681 36.443 16.4159 38 13 38C6.92487 38 2 33.0751 2 27C2 22.082 5.22742 17.9179 9.6798 16.5099C10.2101 16.1864 10.8333 16 11.5 16H13H35H36.5C37.1667 16 37.7898 16.1864 38.3202 16.5099C42.7726 17.9179 46 22.082 46 27C46 33.0751 41.0751 38 35 38C31.5841 38 28.5319 36.443 26.5143 34ZM10 20.5C10 20.2239 10.2239 20 10.5 20H13.5C13.7761 20 14 20.2239 14 20.5V23.5C14 23.7761 13.7761 24 13.5 24H10.5C10.2239 24 10 23.7761 10 23.5V20.5ZM14.5 24C14.2239 24 14 24.2239 14 24.5V27.5C14 27.7761 14.2239 28 14.5 28H17.5C17.7761 28 18 27.7761 18 27.5V24.5C18 24.2239 17.7761 24 17.5 24H14.5ZM38 24C39.1046 24 40 23.1046 40 22C40 20.8954 39.1046 20 38 20C36.8954 20 36 20.8954 36 22C36 23.1046 36.8954 24 38 24ZM38 28C38 29.1046 37.1046 30 36 30C34.8954 30 34 29.1046 34 28C34 26.8954 34.8954 26 36 26C37.1046 26 38 26.8954 38 28ZM10 28.5C10 28.2239 10.2239 28 10.5 28H13.5C13.7761 28 14 28.2239 14 28.5V31.5C14 31.7761 13.7761 32 13.5 32H10.5C10.2239 32 10 31.7761 10 31.5V28.5ZM6.5 24C6.22386 24 6 24.2239 6 24.5V27.5C6 27.7761 6.22386 28 6.5 28H9.5C9.77614 28 10 27.7761 10 27.5V24.5C10 24.2239 9.77614 24 9.5 24H6.5Z" fill="black"/>
</svg>
